src/dark/hiso font dark_j.svg

<svg xmlns="http://www.w3.org/2000/svg" width="72" height="126" viewBox="0 0 72 126"><path fill="#000101" d="M18 18v63l-18-9v27l36 18 18-9v-72l-36-18zm-15 79.15v-20.3l33 16.5v20.3l-33-16.5zm47.646 9.173l-11.646 5.827v-11.65l11.646 5.823zm.354-3.173l-12-6v-5.65l-18-9v-59.65l30 15v65.3z"/></svg>

<svg xmlns="http://www.w3.org/2000/svg" width="72" height="126"><path fill="#000101" d="M18 18v63L0 72v27l36 18 18-9V36L18 18zM3 97.15v-20.3l33 16.5v20.3L3 97.15zm47.646 9.173L39 112.15V100.5l11.646 5.823zM51 103.15l-12-6V91.5l-18-9V22.85l30 15v65.3z"/></svg>
